icons/svg/32x32/image/outline.svg

<svg width="32" height="32" fill="none" xmlns="http://www.w3.org/2000/svg">
  <path fill-rule="evenodd" clip-rule="evenodd" d="M10.5 11a3 3 0 116 0 3 3 0 01-6 0zM16 27c-6.143 0-9.01-.908-10.221-4.317l5.094-3.396 2.42 2.42a1 1 0 001.288.106L21 17.229l5.607 4.004C25.692 25.84 22.932 27 16 27zm0-22c9.047 0 11 1.953 11 11 0 1.099-.03 2.089-.098 2.987l-5.321-3.8a.997.997 0 00-1.162 0l-6.311 4.507-2.401-2.401a.998.998 0 00-1.262-.125L5.282 20.61C5.084 19.326 5 17.812 5 16 5 6.953 6.953 5 16 5zm0-2C5.879 3 3 5.879 3 16s2.879 13 13 13 13-2.879 13-13S26.121 3 16 3z" fill="#000"/>
</svg>

<svg xmlns="http://www.w3.org/2000/svg" width="32" height="32" viewBox="0 0 32 32">
  <path fill-rule="evenodd" d="M10.5,11 C10.5,9.343 11.843,8 13.5,8 C15.157,8 16.5,9.343 16.5,11 C16.5,12.657 15.157,14 13.5,14 C11.843,14 10.5,12.657 10.5,11 M16,27 C9.857,27 6.99,26.092 5.779,22.683 L10.873,19.287 L13.293,21.707 C13.639,22.052 14.184,22.097 14.581,21.813 L21,17.229 L26.607,21.233 C25.692,25.84 22.932,27 16,27 M16,5 C25.047,5 27,6.953 27,16 C27,17.099 26.97,18.089 26.902,18.987 L21.581,15.187 C21.233,14.938 20.767,14.938 20.419,15.187 L14.108,19.694 L11.707,17.293 C11.368,16.955 10.84,16.902 10.445,17.168 L5.282,20.61 C5.084,19.326 5,17.812 5,16 C5,6.953 6.953,5 16,5 M16,3 C5.879,3 3,5.879 3,16 C3,26.121 5.879,29 16,29 C26.121,29 29,26.121 29,16 C29,5.879 26.121,3 16,3"/>
</svg>
